X:1
T: Scales 
C: Diego E. 
L:1/4     
M:4/4
Q:1/4=80
K:C 
"^Mayor"  "C"  C1 D1 E1 F1   | G1 A1 B1 c1| c1 d1 e1 f1 | g1 a1 b1 c'1| C3 G1 |C4|  
"^Minor " "Am" A,1 B,1 C1 D1 | E1 F1 G1 A1| A1 B1 c1 d1 | e1 f1 g1 a1  | A,3 E1 |A,4|] 